X:1
T:Horton, 77.77
T:Horton, 77.77
T:Franz Xaver Schneider Von Wartensee, 1826
T:Public Domain Courtesy of the Cyber Hymnal™
C:Franz Xaver Schneider Von Wartensee, 1826
Z:Public Domain
Z:Courtesy of the Cyber Hymnal™
%%score ( 1 2 ) ( 3 4 )
L:1/8
Q:1/4=135
M:3/4
K:A
V:1 treble 
V:2 treble 
V:3 bass 
V:4 bass 
V:1
 [CE]4 [CA]2 | [Ec]4 [EA]2 | [FA]4 [DF]2 | [CE]6 | (E2 d2) [EB]2 | ([Ec]2 [CA]2) [CF]2 | %6
 (E2 G2) [^DF]2 | E6 | [Ec]4 [DB]2 | [CA]4 ([FB][Ec]) | ([Dd]2 E2) [Ec]2 | [EB]6 | %12
 ([Ee]2 c2) [EA]2 | [DA]2 F2 [DF]2 | ([CE]2 c2) [DB]2 | [CA]6 |] %16
V:2
 x6 | x6 | x6 | x6 | E2 d2 x2 | x6 | E2 G2 x2 | E6 | x6 | x6 | x2 E2 x2 | x6 | x2 c2 x2 | %13
 x2 F2 x2 | x2 c2 x2 | x6 |] %16
V:3
 [A,,A,]4 [A,,A,]2 | [A,,A,]4 [C,A,]2 | [D,D]4 [D,A,]2 | [A,,A,]6 | ([E,G,]2 B,2) [E,G,]2 | %5
 A,4 [A,,A,]2 | ([B,,G,B,]2 B,2) [B,,A,]2 | [E,G,]6 | A,4 [E,G,]2 | [F,A,]4 ([D,F,][C,^A,]) | %10
 [B,,B,]2 G,2 ([C,A,][D,A,]) | [E,G,]6 | ([A,,C]2 A,2) [C,=G,]2 | [D,F,]2 A,2 [D,A,]2 | %14
 [E,A,]4 [E,G,]2 | [A,,A,]6 |] %16
V:4
 x6 | x6 | x6 | x6 | x2 B,2 x2 | A,4 x2 | x2 B,2 x2 | x6 | A,4 x2 | x6 | x2 G,2 x2 | x6 | %12
 x2 A,2 x2 | x2 A,2 x2 | x6 | x6 |] %16

